X:265
T: ES IST SO KOESTLICH HAND IN HAND DAS LEBEN ZU DURCHWALLEN
N: B0314
O: Europa, Mitteleuropa, Deutschland
R: Geselligkeits - Lied, Freude, Freundschaft
M: 4/4
L: 1/8
K: D
A | A3FF3A | AGFGE3
G | FAdcBAGF | F4E2z
A | A3FF3A | AGFGE3
G | FAdcBAGF | F4E2z
A | edcBA3G | GFBAA3
F | GABcd2BG | F2E2D2z
A | edcBA3G | GFBAA3
F | GABcd2BG | F2E2D2z

@@@ Tune index: 2068
